src/lib/packages/icons/src/assets/line/instagram.svg

<svg width="24" height="24" viewBox="0 0 24 24" fill="none" xmlns="http://www.w3.org/2000/svg">
<path d="M21.69 8.2499C21.63 6.9799 21.38 5.34991 20.02 3.98991C18.66 2.62991 17.03 2.37991 15.76 2.31991C14.25 2.23991 9.75997 2.22991 8.25997 2.31991C6.98997 2.37991 5.35996 2.61991 3.99996 3.98991C2.63996 5.34991 2.38995 6.9799 2.32995 8.2499C2.23995 9.7599 2.23995 14.2499 2.32995 15.7499C2.38995 17.0199 2.62996 18.6499 3.99996 20.0199C5.36996 21.3799 6.99997 21.6299 8.25997 21.6899C9.01997 21.7299 10.52 21.7499 12.02 21.7499C13.52 21.7499 15.01 21.7299 15.76 21.6899C17.03 21.6299 18.66 21.3899 20.03 20.0199C21.39 18.6599 21.64 17.0299 21.7 15.7599C21.79 14.2499 21.79 9.7699 21.7 8.2599L21.69 8.2499ZM20.19 15.6699C20.11 17.1799 19.75 18.1599 18.95 18.9499C18.16 19.7399 17.18 20.1099 15.67 20.1799C14.2 20.2599 9.80997 20.2599 8.31997 20.1799C6.81997 20.0999 5.83997 19.7299 5.03997 18.9399C4.24997 18.1499 3.87996 17.1699 3.80996 15.6599C3.72996 14.2199 3.72996 9.7599 3.80996 8.3099C3.88996 6.7999 4.24997 5.8199 5.03997 5.0299C5.82997 4.2399 6.81997 3.8699 8.31997 3.7999C9.05997 3.7599 10.52 3.73991 11.99 3.73991C13.46 3.73991 14.93 3.7599 15.67 3.7999C17.18 3.8799 18.16 4.23989 18.95 5.03989C19.74 5.82989 20.11 6.80991 20.18 8.31991C20.26 9.79991 20.26 14.1899 20.18 15.6699H20.19ZM12 7.2499C9.37996 7.2499 7.24996 9.3799 7.24996 11.9999C7.24996 14.6199 9.37996 16.7499 12 16.7499C14.62 16.7499 16.75 14.6199 16.75 11.9999C16.75 9.3799 14.62 7.2499 12 7.2499ZM12 15.2499C10.21 15.2499 8.74996 13.7899 8.74996 11.9999C8.74996 10.2099 10.21 8.7499 12 8.7499C13.79 8.7499 15.25 10.2099 15.25 11.9999C15.25 13.7899 13.79 15.2499 12 15.2499ZM18.52 6.4999C18.52 7.0499 18.07 7.4999 17.52 7.4999C16.97 7.4999 16.52 7.0499 16.52 6.4999C16.52 5.9499 16.96 5.4999 17.52 5.4999C18.07 5.4999 18.52 5.9499 18.52 6.4999Z" fill="currentColor"/>
</svg>

<svg xmlns="http://www.w3.org/2000/svg" width="24" height="24" fill="none"><path fill="currentColor" d="M21.69 8.25c-.06-1.27-.31-2.9-1.67-4.26-1.36-1.36-2.99-1.61-4.26-1.67-1.51-.08-6-.09-7.5 0-1.27.06-2.9.3-4.26 1.67-1.36 1.36-1.61 2.99-1.67 4.26-.09 1.51-.09 6 0 7.5.06 1.27.3 2.9 1.67 4.27 1.37 1.36 3 1.61 4.26 1.67.76.04 2.26.06 3.76.06s2.99-.02 3.74-.06c1.27-.06 2.9-.3 4.27-1.67 1.36-1.36 1.61-2.99 1.67-4.26.09-1.51.09-5.99 0-7.5l-.01-.01Zm-1.5 7.42c-.08 1.51-.44 2.49-1.24 3.28-.79.79-1.77 1.16-3.28 1.23-1.47.08-5.86.08-7.35 0-1.5-.08-2.48-.45-3.28-1.24-.79-.79-1.16-1.77-1.23-3.28-.08-1.44-.08-5.9 0-7.35.08-1.51.44-2.49 1.23-3.28.79-.79 1.78-1.16 3.28-1.23.74-.04 2.2-.06 3.67-.06 1.47 0 2.94.02 3.68.06 1.51.08 2.49.44 3.28 1.24.79.79 1.16 1.77 1.23 3.28.08 1.48.08 5.87 0 7.35h.01ZM12 7.25c-2.62 0-4.75 2.13-4.75 4.75s2.13 4.75 4.75 4.75 4.75-2.13 4.75-4.75S14.62 7.25 12 7.25Zm0 8c-1.79 0-3.25-1.46-3.25-3.25S10.21 8.75 12 8.75s3.25 1.46 3.25 3.25-1.46 3.25-3.25 3.25Zm6.52-8.75c0 .55-.45 1-1 1s-1-.45-1-1 .44-1 1-1c.55 0 1 .45 1 1Z"/></svg>
